images/72385.svg

<?xml version="1.0" encoding="UTF-8"?>
<svg xmlns="http://www.w3.org/2000/svg" xmlns:xlink="http://www.w3.org/1999/xlink" width="300pt" height="300pt" viewBox="0 0 300 300" version="1.1">
<defs>
<g>
<symbol overflow="visible" id="glyph0-0">
<path style="stroke:none;" d="M 0.453125 1.59375 L 0.453125 -6.34375 L 4.953125 -6.34375 L 4.953125 1.59375 Z M 0.953125 1.09375 L 4.453125 1.09375 L 4.453125 -5.84375 L 0.953125 -5.84375 Z M 0.953125 1.09375 "/>
</symbol>
<symbol overflow="visible" id="glyph0-1">
<path style="stroke:none;" d="M 3.546875 -5.953125 C 2.898438 -5.953125 2.382812 -5.710938 2 -5.234375 C 1.625 -4.753906 1.4375 -4.101562 1.4375 -3.28125 C 1.4375 -2.445312 1.625 -1.789062 2 -1.3125 C 2.382812 -0.832031 2.898438 -0.59375 3.546875 -0.59375 C 4.191406 -0.59375 4.703125 -0.832031 5.078125 -1.3125 C 5.453125 -1.789062 5.640625 -2.445312 5.640625 -3.28125 C 5.640625 -4.101562 5.453125 -4.753906 5.078125 -5.234375 C 4.703125 -5.710938 4.191406 -5.953125 3.546875 -5.953125 Z M 3.546875 -6.6875 C 4.460938 -6.6875 5.195312 -6.375 5.75 -5.75 C 6.300781 -5.132812 6.578125 -4.3125 6.578125 -3.28125 C 6.578125 -2.238281 6.300781 -1.410156 5.75 -0.796875 C 5.195312 -0.179688 4.460938 0.125 3.546875 0.125 C 2.617188 0.125 1.878906 -0.179688 1.328125 -0.796875 C 0.773438 -1.410156 0.5 -2.238281 0.5 -3.28125 C 0.5 -4.3125 0.773438 -5.132812 1.328125 -5.75 C 1.878906 -6.375 2.617188 -6.6875 3.546875 -6.6875 Z M 3.546875 -6.6875 "/>
</symbol>
<symbol overflow="visible" id="glyph0-2">
<path style="stroke:none;" d="M 0.890625 -6.5625 L 1.765625 -6.5625 L 1.765625 -3.875 L 5 -3.875 L 5 -6.5625 L 5.890625 -6.5625 L 5.890625 0 L 5 0 L 5 -3.125 L 1.765625 -3.125 L 1.765625 0 L 0.890625 0 Z M 0.890625 -6.5625 "/>
</symbol>
</g>
</defs>
<g id="surface42701">
<rect x="0" y="0" width="300" height="300" style="fill:rgb(100%,100%,100%);fill-opacity:1;stroke:none;"/>
<path style="fill:none;stroke-width:1.2;stroke-linecap:butt;stroke-linejoin:miter;stroke:rgb(0%,0%,0%);stroke-opacity:1;stroke-miterlimit:10;" d="M 35.25 153.855469 L 41.289062 150.757812 "/>
<path style="fill:none;stroke-width:1.2;stroke-linecap:butt;stroke-linejoin:miter;stroke:rgb(0%,0%,0%);stroke-opacity:1;stroke-miterlimit:10;" d="M 41.289062 150.757812 L 46.992188 154.441406 "/>
<path style="fill:none;stroke-width:1.2;stroke-linecap:butt;stroke-linejoin:miter;stroke:rgb(0%,0%,0%);stroke-opacity:1;stroke-miterlimit:10;" d="M 46.992188 154.441406 L 53.035156 151.34375 "/>
<path style="fill:none;stroke-width:1.2;stroke-linecap:butt;stroke-linejoin:miter;stroke:rgb(0%,0%,0%);stroke-opacity:1;stroke-miterlimit:10;" d="M 53.035156 151.34375 L 58.738281 155.023438 "/>
<path style="fill:none;stroke-width:1.2;stroke-linecap:butt;stroke-linejoin:miter;stroke:rgb(0%,0%,0%);stroke-opacity:1;stroke-miterlimit:10;" d="M 58.738281 155.023438 L 64.777344 151.925781 "/>
<path style="fill:none;stroke-width:1.2;stroke-linecap:butt;stroke-linejoin:miter;stroke:rgb(0%,0%,0%);stroke-opacity:1;stroke-miterlimit:10;" d="M 64.777344 151.925781 L 70.480469 155.609375 "/>
<path style="fill:none;stroke-width:1.2;stroke-linecap:butt;stroke-linejoin:miter;stroke:rgb(0%,0%,0%);stroke-opacity:1;stroke-miterlimit:10;" d="M 70.480469 155.609375 L 76.519531 152.511719 "/>
<path style="fill:none;stroke-width:1.2;stroke-linecap:butt;stroke-linejoin:miter;stroke:rgb(0%,0%,0%);stroke-opacity:1;stroke-miterlimit:10;" d="M 76.519531 152.511719 L 82.222656 156.195312 "/>
<path style="fill:none;stroke-width:1.2;stroke-linecap:butt;stroke-linejoin:miter;stroke:rgb(0%,0%,0%);stroke-opacity:1;stroke-miterlimit:10;" d="M 82.222656 156.195312 L 88.261719 153.097656 "/>
<path style="fill:none;stroke-width:1.2;stroke-linecap:butt;stroke-linejoin:miter;stroke:rgb(0%,0%,0%);stroke-opacity:1;stroke-miterlimit:10;" d="M 88.261719 153.097656 L 88.601562 146.316406 "/>
<path style="fill:none;stroke-width:1.2;stroke-linecap:butt;stroke-linejoin:miter;stroke:rgb(0%,0%,0%);stroke-opacity:1;stroke-miterlimit:10;" d="M 89.890625 152.5 L 90.164062 147.074219 "/>
<path style="fill:none;stroke-width:1.2;stroke-linecap:butt;stroke-linejoin:miter;stroke:rgb(0%,0%,0%);stroke-opacity:1;stroke-miterlimit:10;" d="M 93.964844 156.78125 L 88.261719 153.097656 "/>
<path style="fill:none;stroke-width:1.2;stroke-linecap:butt;stroke-linejoin:miter;stroke:rgb(0%,0%,0%);stroke-opacity:1;stroke-miterlimit:10;" d="M 88.601562 146.316406 L 94.640625 143.21875 "/>
<path style="fill:none;stroke-width:1.2;stroke-linecap:butt;stroke-linejoin:miter;stroke:rgb(0%,0%,0%);stroke-opacity:1;stroke-miterlimit:10;" d="M 94.640625 143.21875 L 100.34375 146.902344 "/>
<path style="fill:none;stroke-width:1.2;stroke-linecap:butt;stroke-linejoin:miter;stroke:rgb(0%,0%,0%);stroke-opacity:1;stroke-miterlimit:10;" d="M 94.34375 144.929688 L 98.90625 147.875 "/>
<path style="fill:none;stroke-width:1.2;stroke-linecap:butt;stroke-linejoin:miter;stroke:rgb(0%,0%,0%);stroke-opacity:1;stroke-miterlimit:10;" d="M 100.34375 146.902344 L 100.007812 153.683594 "/>
<path style="fill:none;stroke-width:1.2;stroke-linecap:butt;stroke-linejoin:miter;stroke:rgb(0%,0%,0%);stroke-opacity:1;stroke-miterlimit:10;" d="M 100.34375 146.902344 L 103.363281 145.355469 "/>
<path style="fill:none;stroke-width:1.2;stroke-linecap:butt;stroke-linejoin:miter;stroke:rgb(100%,0%,0%);stroke-opacity:1;stroke-miterlimit:10;" d="M 103.363281 145.355469 L 106.386719 143.804688 "/>
<path style="fill:none;stroke-width:1.2;stroke-linecap:butt;stroke-linejoin:miter;stroke:rgb(0%,0%,0%);stroke-opacity:1;stroke-miterlimit:10;" d="M 100.007812 153.683594 L 93.964844 156.78125 "/>
<path style="fill:none;stroke-width:1.2;stroke-linecap:butt;stroke-linejoin:miter;stroke:rgb(0%,0%,0%);stroke-opacity:1;stroke-miterlimit:10;" d="M 98.675781 152.570312 L 93.839844 155.050781 "/>
<path style="fill:none;stroke-width:1.2;stroke-linecap:butt;stroke-linejoin:miter;stroke:rgb(100%,0%,0%);stroke-opacity:1;stroke-miterlimit:10;" d="M 106.386719 143.804688 L 109.238281 145.644531 "/>
<path style="fill:none;stroke-width:1.2;stroke-linecap:butt;stroke-linejoin:miter;stroke:rgb(0%,0%,0%);stroke-opacity:1;stroke-miterlimit:10;" d="M 109.238281 145.644531 L 112.085938 147.488281 "/>
<path style=" stroke:none;fill-rule:nonzero;fill:rgb(100%,100%,100%);fill-opacity:1;" d="M 102.386719 138.304688 L 110.386719 138.304688 L 110.386719 149.304688 L 102.386719 149.304688 Z M 102.386719 138.304688 "/>
<g style="fill:rgb(100%,0%,0%);fill-opacity:1;">
  <use xlink:href="#glyph0-1" x="102.386719" y="146.967773"/>
</g>
<path style="fill:none;stroke-width:1.2;stroke-linecap:butt;stroke-linejoin:miter;stroke:rgb(0%,0%,0%);stroke-opacity:1;stroke-miterlimit:10;" d="M 112.085938 147.488281 L 118.128906 144.390625 "/>
<path style="fill:none;stroke-width:1.2;stroke-linecap:butt;stroke-linejoin:miter;stroke:rgb(0%,0%,0%);stroke-opacity:1;stroke-miterlimit:10;" d="M 118.128906 144.390625 L 120.980469 146.230469 "/>
<path style="fill:none;stroke-width:1.2;stroke-linecap:butt;stroke-linejoin:miter;stroke:rgb(100%,0%,0%);stroke-opacity:1;stroke-miterlimit:10;" d="M 120.980469 146.230469 L 123.832031 148.074219 "/>
<path style="fill:none;stroke-width:1.2;stroke-linecap:butt;stroke-linejoin:miter;stroke:rgb(100%,0%,0%);stroke-opacity:1;stroke-miterlimit:10;" d="M 123.832031 148.074219 L 126.851562 146.523438 "/>
<path style="fill:none;stroke-width:1.2;stroke-linecap:butt;stroke-linejoin:miter;stroke:rgb(0%,0%,0%);stroke-opacity:1;stroke-miterlimit:10;" d="M 126.851562 146.523438 L 129.871094 144.976562 "/>
<path style=" stroke:none;fill-rule:nonzero;fill:rgb(100%,100%,100%);fill-opacity:1;" d="M 119.832031 142.574219 L 127.832031 142.574219 L 127.832031 153.574219 L 119.832031 153.574219 Z M 119.832031 142.574219 "/>
<g style="fill:rgb(100%,0%,0%);fill-opacity:1;">
  <use xlink:href="#glyph0-1" x="119.832031" y="151.237305"/>
</g>
<path style="fill:none;stroke-width:1.2;stroke-linecap:butt;stroke-linejoin:miter;stroke:rgb(0%,0%,0%);stroke-opacity:1;stroke-miterlimit:10;" d="M 129.871094 144.976562 L 135.574219 148.65625 "/>
<path style="fill:none;stroke-width:1.2;stroke-linecap:butt;stroke-linejoin:miter;stroke:rgb(0%,0%,0%);stroke-opacity:1;stroke-miterlimit:10;" d="M 135.574219 148.65625 L 138.59375 147.109375 "/>
<path style="fill:none;stroke-width:1.2;stroke-linecap:butt;stroke-linejoin:miter;stroke:rgb(100%,0%,0%);stroke-opacity:1;stroke-miterlimit:10;" d="M 138.59375 147.109375 L 141.613281 145.558594 "/>
<path style="fill:none;stroke-width:1.2;stroke-linecap:butt;stroke-linejoin:miter;stroke:rgb(100%,0%,0%);stroke-opacity:1;stroke-miterlimit:10;" d="M 141.613281 145.558594 L 144.464844 147.402344 "/>
<path style="fill:none;stroke-width:1.2;stroke-linecap:butt;stroke-linejoin:miter;stroke:rgb(0%,0%,0%);stroke-opacity:1;stroke-miterlimit:10;" d="M 144.464844 147.402344 L 147.316406 149.242188 "/>
<path style=" stroke:none;fill-rule:nonzero;fill:rgb(100%,100%,100%);fill-opacity:1;" d="M 137.613281 140.058594 L 145.613281 140.058594 L 145.613281 151.058594 L 137.613281 151.058594 Z M 137.613281 140.058594 "/>
<g style="fill:rgb(100%,0%,0%);fill-opacity:1;">
  <use xlink:href="#glyph0-1" x="137.613281" y="148.72168"/>
</g>
<path style="fill:none;stroke-width:1.2;stroke-linecap:butt;stroke-linejoin:miter;stroke:rgb(0%,0%,0%);stroke-opacity:1;stroke-miterlimit:10;" d="M 147.316406 149.242188 L 153.359375 146.144531 "/>
<path style="fill:none;stroke-width:1.2;stroke-linecap:butt;stroke-linejoin:miter;stroke:rgb(0%,0%,0%);stroke-opacity:1;stroke-miterlimit:10;" d="M 153.359375 146.144531 L 156.210938 147.988281 "/>
<path style="fill:none;stroke-width:1.2;stroke-linecap:butt;stroke-linejoin:miter;stroke:rgb(100%,0%,0%);stroke-opacity:1;stroke-miterlimit:10;" d="M 156.210938 147.988281 L 159.0625 149.828125 "/>
<path style="fill:none;stroke-width:1.2;stroke-linecap:butt;stroke-linejoin:miter;stroke:rgb(100%,0%,0%);stroke-opacity:1;stroke-miterlimit:10;" d="M 159.0625 149.828125 L 162.082031 148.28125 "/>
<path style="fill:none;stroke-width:1.2;stroke-linecap:butt;stroke-linejoin:miter;stroke:rgb(0%,0%,0%);stroke-opacity:1;stroke-miterlimit:10;" d="M 162.082031 148.28125 L 165.101562 146.730469 "/>
<path style=" stroke:none;fill-rule:nonzero;fill:rgb(100%,100%,100%);fill-opacity:1;" d="M 155.0625 144.328125 L 163.0625 144.328125 L 163.0625 155.328125 L 155.0625 155.328125 Z M 155.0625 144.328125 "/>
<g style="fill:rgb(100%,0%,0%);fill-opacity:1;">
  <use xlink:href="#glyph0-1" x="155.0625" y="152.991211"/>
</g>
<path style="fill:none;stroke-width:1.2;stroke-linecap:butt;stroke-linejoin:miter;stroke:rgb(0%,0%,0%);stroke-opacity:1;stroke-miterlimit:10;" d="M 165.101562 146.730469 L 170.804688 150.414062 "/>
<path style="fill:none;stroke-width:1.2;stroke-linecap:butt;stroke-linejoin:miter;stroke:rgb(0%,0%,0%);stroke-opacity:1;stroke-miterlimit:10;" d="M 170.804688 150.414062 L 173.824219 148.863281 "/>
<path style="fill:none;stroke-width:1.2;stroke-linecap:butt;stroke-linejoin:miter;stroke:rgb(100%,0%,0%);stroke-opacity:1;stroke-miterlimit:10;" d="M 173.824219 148.863281 L 176.84375 147.316406 "/>
<path style="fill:none;stroke-width:1.2;stroke-linecap:butt;stroke-linejoin:miter;stroke:rgb(100%,0%,0%);stroke-opacity:1;stroke-miterlimit:10;" d="M 176.84375 147.316406 L 179.695312 149.15625 "/>
<path style="fill:none;stroke-width:1.2;stroke-linecap:butt;stroke-linejoin:miter;stroke:rgb(0%,0%,0%);stroke-opacity:1;stroke-miterlimit:10;" d="M 179.695312 149.15625 L 182.546875 151 "/>
<path style=" stroke:none;fill-rule:nonzero;fill:rgb(100%,100%,100%);fill-opacity:1;" d="M 172.84375 141.816406 L 180.84375 141.816406 L 180.84375 152.816406 L 172.84375 152.816406 Z M 172.84375 141.816406 "/>
<g style="fill:rgb(100%,0%,0%);fill-opacity:1;">
  <use xlink:href="#glyph0-1" x="172.84375" y="150.479492"/>
</g>
<path style="fill:none;stroke-width:1.2;stroke-linecap:butt;stroke-linejoin:miter;stroke:rgb(0%,0%,0%);stroke-opacity:1;stroke-miterlimit:10;" d="M 182.546875 151 L 188.585938 147.902344 "/>
<path style="fill:none;stroke-width:1.2;stroke-linecap:butt;stroke-linejoin:miter;stroke:rgb(0%,0%,0%);stroke-opacity:1;stroke-miterlimit:10;" d="M 188.585938 147.902344 L 191.4375 149.742188 "/>
<path style="fill:none;stroke-width:1.2;stroke-linecap:butt;stroke-linejoin:miter;stroke:rgb(100%,0%,0%);stroke-opacity:1;stroke-miterlimit:10;" d="M 191.4375 149.742188 L 194.289062 151.582031 "/>
<path style="fill:none;stroke-width:1.2;stroke-linecap:butt;stroke-linejoin:miter;stroke:rgb(100%,0%,0%);stroke-opacity:1;stroke-miterlimit:10;" d="M 194.289062 151.582031 L 197.3125 150.035156 "/>
<path style="fill:none;stroke-width:1.2;stroke-linecap:butt;stroke-linejoin:miter;stroke:rgb(0%,0%,0%);stroke-opacity:1;stroke-miterlimit:10;" d="M 197.3125 150.035156 L 200.332031 148.484375 "/>
<path style=" stroke:none;fill-rule:nonzero;fill:rgb(100%,100%,100%);fill-opacity:1;" d="M 190.289062 146.082031 L 198.289062 146.082031 L 198.289062 157.082031 L 190.289062 157.082031 Z M 190.289062 146.082031 "/>
<g style="fill:rgb(100%,0%,0%);fill-opacity:1;">
  <use xlink:href="#glyph0-1" x="190.289062" y="154.745117"/>
</g>
<path style="fill:none;stroke-width:1.2;stroke-linecap:butt;stroke-linejoin:miter;stroke:rgb(0%,0%,0%);stroke-opacity:1;stroke-miterlimit:10;" d="M 200.332031 148.484375 L 206.035156 152.167969 "/>
<path style="fill:none;stroke-width:1.2;stroke-linecap:butt;stroke-linejoin:miter;stroke:rgb(0%,0%,0%);stroke-opacity:1;stroke-miterlimit:10;" d="M 206.035156 152.167969 L 209.054688 150.621094 "/>
<path style="fill:none;stroke-width:1.2;stroke-linecap:butt;stroke-linejoin:miter;stroke:rgb(100%,0%,0%);stroke-opacity:1;stroke-miterlimit:10;" d="M 209.054688 150.621094 L 212.074219 149.070312 "/>
<path style="fill:none;stroke-width:1.2;stroke-linecap:butt;stroke-linejoin:miter;stroke:rgb(100%,0%,0%);stroke-opacity:1;stroke-miterlimit:10;" d="M 212.074219 149.070312 L 214.925781 150.914062 "/>
<path style="fill:none;stroke-width:1.2;stroke-linecap:butt;stroke-linejoin:miter;stroke:rgb(0%,0%,0%);stroke-opacity:1;stroke-miterlimit:10;" d="M 214.925781 150.914062 L 217.777344 152.753906 "/>
<path style=" stroke:none;fill-rule:nonzero;fill:rgb(100%,100%,100%);fill-opacity:1;" d="M 208.074219 143.570312 L 216.074219 143.570312 L 216.074219 154.570312 L 208.074219 154.570312 Z M 208.074219 143.570312 "/>
<g style="fill:rgb(100%,0%,0%);fill-opacity:1;">
  <use xlink:href="#glyph0-1" x="208.074219" y="152.233398"/>
</g>
<path style="fill:none;stroke-width:1.2;stroke-linecap:butt;stroke-linejoin:miter;stroke:rgb(0%,0%,0%);stroke-opacity:1;stroke-miterlimit:10;" d="M 217.777344 152.753906 L 223.816406 149.65625 "/>
<path style="fill:none;stroke-width:1.2;stroke-linecap:butt;stroke-linejoin:miter;stroke:rgb(0%,0%,0%);stroke-opacity:1;stroke-miterlimit:10;" d="M 223.816406 149.65625 L 226.667969 151.496094 "/>
<path style="fill:none;stroke-width:1.2;stroke-linecap:butt;stroke-linejoin:miter;stroke:rgb(100%,0%,0%);stroke-opacity:1;stroke-miterlimit:10;" d="M 226.667969 151.496094 L 229.519531 153.339844 "/>
<path style="fill:none;stroke-width:1.2;stroke-linecap:butt;stroke-linejoin:miter;stroke:rgb(100%,0%,0%);stroke-opacity:1;stroke-miterlimit:10;" d="M 229.519531 153.339844 L 232.539062 151.789062 "/>
<path style="fill:none;stroke-width:1.2;stroke-linecap:butt;stroke-linejoin:miter;stroke:rgb(0%,0%,0%);stroke-opacity:1;stroke-miterlimit:10;" d="M 232.539062 151.789062 L 235.5625 150.242188 "/>
<path style=" stroke:none;fill-rule:nonzero;fill:rgb(100%,100%,100%);fill-opacity:1;" d="M 225.519531 147.839844 L 233.519531 147.839844 L 233.519531 158.839844 L 225.519531 158.839844 Z M 225.519531 147.839844 "/>
<g style="fill:rgb(100%,0%,0%);fill-opacity:1;">
  <use xlink:href="#glyph0-1" x="225.519531" y="156.50293"/>
</g>
<path style="fill:none;stroke-width:1.2;stroke-linecap:butt;stroke-linejoin:miter;stroke:rgb(0%,0%,0%);stroke-opacity:1;stroke-miterlimit:10;" d="M 235.5625 150.242188 L 241.261719 153.925781 "/>
<path style="fill:none;stroke-width:1.2;stroke-linecap:butt;stroke-linejoin:miter;stroke:rgb(0%,0%,0%);stroke-opacity:1;stroke-miterlimit:10;" d="M 241.261719 153.925781 L 244.285156 152.375 "/>
<path style="fill:none;stroke-width:1.2;stroke-linecap:butt;stroke-linejoin:miter;stroke:rgb(100%,0%,0%);stroke-opacity:1;stroke-miterlimit:10;" d="M 244.285156 152.375 L 247.304688 150.828125 "/>
<path style="fill:none;stroke-width:1.2;stroke-linecap:butt;stroke-linejoin:miter;stroke:rgb(100%,0%,0%);stroke-opacity:1;stroke-miterlimit:10;" d="M 247.304688 150.828125 L 250.15625 152.667969 "/>
<path style="fill:none;stroke-width:1.2;stroke-linecap:butt;stroke-linejoin:miter;stroke:rgb(0%,0%,0%);stroke-opacity:1;stroke-miterlimit:10;" d="M 250.15625 152.667969 L 253.007812 154.507812 "/>
<path style=" stroke:none;fill-rule:nonzero;fill:rgb(100%,100%,100%);fill-opacity:1;" d="M 243.304688 145.328125 L 251.304688 145.328125 L 251.304688 156.328125 L 243.304688 156.328125 Z M 243.304688 145.328125 "/>
<g style="fill:rgb(100%,0%,0%);fill-opacity:1;">
  <use xlink:href="#glyph0-1" x="243.304688" y="153.991211"/>
</g>
<path style="fill:none;stroke-width:1.2;stroke-linecap:butt;stroke-linejoin:miter;stroke:rgb(0%,0%,0%);stroke-opacity:1;stroke-miterlimit:10;" d="M 253.007812 154.507812 L 259.046875 151.410156 "/>
<path style="fill:none;stroke-width:1.2;stroke-linecap:butt;stroke-linejoin:miter;stroke:rgb(0%,0%,0%);stroke-opacity:1;stroke-miterlimit:10;" d="M 259.046875 151.410156 L 261.898438 153.253906 "/>
<path style="fill:none;stroke-width:1.2;stroke-linecap:butt;stroke-linejoin:miter;stroke:rgb(100%,0%,0%);stroke-opacity:1;stroke-miterlimit:10;" d="M 261.898438 153.253906 L 264.75 155.09375 "/>
<path style=" stroke:none;fill-rule:nonzero;fill:rgb(100%,100%,100%);fill-opacity:1;" d="M 257.75 149.59375 L 272.75 149.59375 L 272.75 160.59375 L 257.75 160.59375 Z M 257.75 149.59375 "/>
<g style="fill:rgb(100%,0%,0%);fill-opacity:1;">
  <use xlink:href="#glyph0-1" x="257.75" y="158.256836"/>
  <use xlink:href="#glyph0-2" x="265.091797" y="158.256836"/>
</g>
</g>
</svg>

<svg xmlns="http://www.w3.org/2000/svg" xmlns:xlink="http://www.w3.org/1999/xlink" width="300pt" height="300pt" viewBox="0 0 300 300"><defs><symbol overflow="visible"><path d="M.453 1.594v-7.938h4.5v7.938zm.5-.5h3.5v-6.938h-3.5zm0 0"/></symbol><symbol overflow="visible" id="a"><path d="M3.547-5.953c-.65 0-1.164.242-1.547.72-.375.48-.563 1.13-.563 1.952 0 .835.188 1.49.563 1.967.383.48.898.72 1.547.72.644 0 1.156-.24 1.53-.72.376-.476.564-1.132.564-1.968 0-.822-.187-1.474-.562-1.954-.375-.477-.887-.72-1.53-.72zm0-.734c.914 0 1.648.312 2.203.937.55.617.828 1.438.828 2.47 0 1.042-.277 1.87-.828 2.483-.555.617-1.29.922-2.203.922-.93 0-1.668-.305-2.22-.922C.774-1.41.5-2.237.5-3.28c0-1.033.273-1.853.828-2.47.55-.625 1.29-.938 2.22-.938zm0 0"/></symbol><symbol overflow="visible" id="b"><path d="M.89-6.563h.876v2.688H5v-2.688h.89V0H5v-3.125H1.766V0H.89zm0 0"/></symbol></defs><g><path fill="#fff" d="M0 0h300v300H0z"/><path d="M35.25 153.855l6.04-3.097M41.29 150.758l5.702 3.683M46.992 154.44l6.043-3.096M53.035 151.344l5.703 3.68M58.738 155.023l6.04-3.097M64.777 151.926l5.703 3.683M70.48 155.61l6.04-3.098M76.52 152.512l5.703 3.683M82.223 156.195l6.04-3.097M88.262 153.098l.34-6.782M89.89 152.5l.274-5.426M93.965 156.78l-5.703-3.682M88.602 146.316l6.04-3.097M94.64 143.22l5.704 3.682M94.344 144.93l4.562 2.945M100.344 146.902l-.336 6.782M100.344 146.902l3.02-1.547" stroke-width="1.2" stroke="#000" stroke-miterlimit="10" fill="none"/><path d="M103.363 145.355l3.024-1.55" stroke-width="1.2" stroke="#f00" stroke-miterlimit="10" fill="none"/><path d="M100.008 153.684l-6.043 3.097M98.676 152.57l-4.836 2.48" stroke-width="1.2" stroke="#000" stroke-miterlimit="10" fill="none"/><path d="M106.387 143.805l2.85 1.84" stroke-width="1.2" stroke="#f00" stroke-miterlimit="10" fill="none"/><path d="M109.238 145.645l2.848 1.843" stroke-width="1.2" stroke="#000" stroke-miterlimit="10" fill="none"/><path d="M102.387 138.305h8v11h-8zm0 0" fill="#fff"/><use xlink:href="#a" x="102.387" y="146.968" fill="#f00"/><path d="M112.086 147.488l6.043-3.097M118.13 144.39l2.85 1.84" stroke-width="1.2" stroke="#000" stroke-miterlimit="10" fill="none"/><path d="M120.98 146.23l2.852 1.844M123.832 148.074l3.02-1.55" stroke-width="1.2" stroke="#f00" stroke-miterlimit="10" fill="none"/><path d="M126.852 146.523l3.02-1.546" stroke-width="1.2" stroke="#000" stroke-miterlimit="10" fill="none"/><path d="M119.832 142.574h8v11h-8zm0 0" fill="#fff"/><use xlink:href="#a" x="119.832" y="151.237" fill="#f00"/><path d="M129.87 144.977l5.704 3.68M135.574 148.656l3.02-1.547" stroke-width="1.2" stroke="#000" stroke-miterlimit="10" fill="none"/><path d="M138.594 147.11l3.02-1.55M141.613 145.56l2.852 1.842" stroke-width="1.2" stroke="#f00" stroke-miterlimit="10" fill="none"/><path d="M144.465 147.402l2.85 1.84" stroke-width="1.2" stroke="#000" stroke-miterlimit="10" fill="none"/><path d="M137.613 140.06h8v11h-8zm0 0" fill="#fff"/><use xlink:href="#a" x="137.613" y="148.722" fill="#f00"/><path d="M147.316 149.242l6.043-3.097M153.36 146.145l2.85 1.843" stroke-width="1.2" stroke="#000" stroke-miterlimit="10" fill="none"/><path d="M156.21 147.988l2.852 1.84M159.063 149.828l3.02-1.547" stroke-width="1.2" stroke="#f00" stroke-miterlimit="10" fill="none"/><path d="M162.082 148.28l3.02-1.55" stroke-width="1.2" stroke="#000" stroke-miterlimit="10" fill="none"/><path d="M155.063 144.328h8v11h-8zm0 0" fill="#fff"/><use xlink:href="#a" x="155.063" y="152.991" fill="#f00"/><path d="M165.102 146.73l5.703 3.684M170.805 150.414l3.02-1.55" stroke-width="1.2" stroke="#000" stroke-miterlimit="10" fill="none"/><path d="M173.824 148.863l3.02-1.547M176.844 147.316l2.85 1.84" stroke-width="1.2" stroke="#f00" stroke-miterlimit="10" fill="none"/><path d="M179.695 149.156l2.852 1.844" stroke-width="1.2" stroke="#000" stroke-miterlimit="10" fill="none"/><path d="M172.844 141.816h8v11h-8zm0 0" fill="#fff"/><use xlink:href="#a" x="172.844" y="150.479" fill="#f00"/><path d="M182.547 151l6.04-3.098M188.586 147.902l2.85 1.84" stroke-width="1.2" stroke="#000" stroke-miterlimit="10" fill="none"/><path d="M191.438 149.742l2.85 1.84M194.29 151.582l3.023-1.547" stroke-width="1.2" stroke="#f00" stroke-miterlimit="10" fill="none"/><path d="M197.313 150.035l3.02-1.55" stroke-width="1.2" stroke="#000" stroke-miterlimit="10" fill="none"/><path d="M190.29 146.082h8v11h-8zm0 0" fill="#fff"/><use xlink:href="#a" x="190.289" y="154.745" fill="#f00"/><path d="M200.332 148.484l5.703 3.684M206.035 152.168l3.02-1.547" stroke-width="1.2" stroke="#000" stroke-miterlimit="10" fill="none"/><path d="M209.055 150.62l3.02-1.55M212.074 149.07l2.852 1.844" stroke-width="1.2" stroke="#f00" stroke-miterlimit="10" fill="none"/><path d="M214.926 150.914l2.85 1.84" stroke-width="1.2" stroke="#000" stroke-miterlimit="10" fill="none"/><path d="M208.074 143.57h8v11h-8zm0 0" fill="#fff"/><use xlink:href="#a" x="208.074" y="152.233" fill="#f00"/><path d="M217.777 152.754l6.04-3.098M223.816 149.656l2.852 1.84" stroke-width="1.2" stroke="#000" stroke-miterlimit="10" fill="none"/><path d="M226.668 151.496l2.852 1.844M229.52 153.34l3.02-1.55" stroke-width="1.2" stroke="#f00" stroke-miterlimit="10" fill="none"/><path d="M232.54 151.79l3.023-1.548" stroke-width="1.2" stroke="#000" stroke-miterlimit="10" fill="none"/><path d="M225.52 147.84h8v11h-8zm0 0" fill="#fff"/><use xlink:href="#a" x="225.52" y="156.503" fill="#f00"/><path d="M235.563 150.242l5.7 3.684M241.262 153.926l3.023-1.55" stroke-width="1.2" stroke="#000" stroke-miterlimit="10" fill="none"/><path d="M244.285 152.375l3.02-1.547M247.305 150.828l2.85 1.84" stroke-width="1.2" stroke="#f00" stroke-miterlimit="10" fill="none"/><path d="M250.156 152.668l2.852 1.84" stroke-width="1.2" stroke="#000" stroke-miterlimit="10" fill="none"/><path d="M243.305 145.328h8v11h-8zm0 0" fill="#fff"/><use xlink:href="#a" x="243.305" y="153.991" fill="#f00"/><path d="M253.008 154.508l6.04-3.098M259.047 151.41l2.85 1.844" stroke-width="1.2" stroke="#000" stroke-miterlimit="10" fill="none"/><path d="M261.898 153.254l2.852 1.84" stroke-width="1.2" stroke="#f00" stroke-miterlimit="10" fill="none"/><path d="M257.75 149.594h15v11h-15zm0 0" fill="#fff"/><g fill="#f00"><use xlink:href="#a" x="257.75" y="158.257"/><use xlink:href="#b" x="265.092" y="158.257"/></g></g></svg>
